X: 30703
T: Orcas Moon
R: barndance
M: 4/4
K: Dmajor
|:A/ d>e|f2 f>e f>dA>F|G2 B2 (3ABc d>e|f2 f>e a>gf>e|f2 e>^d e>A=d>e|
f2 f>e f>dA>F|G2 B2 (3ABc d>e|f>aa>f b>ge>c|d2 d2 d3/2:|
|:A/ (3GFE|F2 F>E F>D (3FGA|f2 d2 A2- A>F|G2 E2 e2 E>F|G>FA>F B>A (3EFG|
A2 F>G (3ABA (3FGA|f2 d2 A>FA>a|g2 e2 c>A (3GFE|D2 D2 D3/2:|
|:A/ (3FAd|f>dA>F D2 (3FGA|f2 f>^e f2 f>a|g>ec>A c>eg>a|b>aa>^g a2 (3ef=g|
a>fd>A F2 (3FAd|f>^ef>=e f2- f>a|g>Af>A e>A (3cde|(3dcd e>c d3/2:|2 (3dcd A>F D3/2||

